Adwaita++-Light/panel/16/dino-status-away.svg

<svg height="16" width="16" xmlns="http://www.w3.org/2000/svg">
  <path d="m8 1a7 7 0 0 0 -7 7 7 7 0 0 0 7 7 7 7 0 0 0 7-7 7 7 0 0 0 -7-7zm-.125 2h.25c.485 0 .875.3902.875.875v3.125h3.125c.485 0 .875.39.875.875v.25c0 .485-.39.875-.875.875h-4-.25c-.485 0-.875-.39-.875-.875v-.25-4c0-.4848.39-.875.875-.875z" fill="#444"/>
</svg>

<svg xmlns="http://www.w3.org/2000/svg" width="16" height="16" version="1.1">
 <defs>
  <style id="current-color-scheme" type="text/css">
   .ColorScheme-Text { color:#444444; } .ColorScheme-Highlight { color:#4285f4; }
  </style>
 </defs>
 <path style="fill:currentColor" class="ColorScheme-Text" d="M 8 1 A 7 7 0 0 0 1 8 A 7 7 0 0 0 8 15 A 7 7 0 0 0 15 8 A 7 7 0 0 0 8 1 z M 7.875 3 L 8.125 3 C 8.61 3 9 3.3902 9 3.875 L 9 7 L 12.125 7 C 12.61 7 13 7.39 13 7.875 L 13 8.125 C 13 8.61 12.61 9 12.125 9 L 8.125 9 L 7.875 9 C 7.39 9 7 8.61 7 8.125 L 7 7.875 L 7 3.875 C 7 3.3902 7.39 3 7.875 3 z"/>
</svg>
